X:1
T:Reilly's Daughter
M:2/4
L:1/8
K:F
 C| DD CB,| FG A2| cc cA/2-c/2| dc AF| D/2D/2 D/2D/2 CC| F/2F/2 G A3/2 C/2|\
 cc c/2A/2 c| dc AF| D/2D/2 D C2| F/2F/2 G A2| c/2c/2 cc A/2c/2| dc AF|\
 D/2D/2 D C2|| C/2C/2 C/2C/2| DE| F3||
